X:212135 
T:MISS FAHEY'S FANCY (reel)
B:DMI.0800
Z:Nordberg/Black
N:This sounds to me as if the first part should be D modal
but the source has no C naturals. If you want to hear the
first part with C sharps, replace G in the %K: field with D. 
R:reel
%Q:1/4=180
M:C|
L:1/8
K:G
AG|FDDC A,2FG|AcBG cBAG|AGDE F2EF|DdcA G2AG|
FDDC A,2DG|BAcA dcde|fdec dcAB|cAGF G2||
K:D
FG|Adde fdec|ABcA dcAG|Adde fgec|ABcA d2fg|
afge fdef|dcAB cAGE|Dddc Adeg|fdcA HG4|]


%%%

